X:751
T:A Trip to Paris
M:2/2
L:1/8
S:Colin Hume's website,  colinhume.com  - chords can also be printed below the stave.
Q:1/2=120
K:Am
P:A
A2 | "Am"c3 d e2 e2 | "Am"c3 d e2 e2 | "Dm"c2 e2 c2 e2 | "Am"c2 Bc A2 A2 |\
"Am"c3 d e2 e2 | "Am"c3 d e2 e2 | "Dm"c2 A2 "E7"B2 ^G2 | "Am"A6 e2 |
P:B
"Dm"a4 a2 ^g2 | "Am"a2 =gf e2 e2 | "Dm"a4 a2 ^g2 | "Am"a2 =gf e2 e2 |\
"Dm"f3 e "G"d2 g2 | "C"e4-"Am"e2 f2 | "Dm"d4-"E7"d2 e2 | "Am"c6 d2 | "Dm"d2 c2 "G7"d2 B2 | "C"c6 c2 |
"E7"B2 c2 d2 e2 | "Am"c2 Bc A2 c2 | "E7"B2 c2 d2 e2 | "Am"c2 Bc A2 c2 |\
"C"E2 F2 G2 A2 | "G"B4 "F"a4 | "C"e2 dc "E7"d2 cB | "Am"A6 |]

